X:1
T:Tavy Cleave, 11.10.11.10
T:Tavy Cleave, 11.10.11.10
T:John Ferris Tozer (1857-1944)
T:Public Domain Courtesy of the Cyber Hymnal™
C:John Ferris Tozer (1857-1944)
Z:Public Domain
Z:Courtesy of the Cyber Hymnal™
%%score ( 1 2 ) ( 3 4 )
L:1/8
Q:1/4=113
M:3/4
K:Db
V:1 treble 
V:2 treble 
V:3 bass 
V:4 bass 
V:1
 [FA]2 [Fd]2 [Fe]2 | [Gd]2 [Gc]2 [GA]2 | [EG]2 [Gc]2 [GB]2 | [GB]4 [FA]2 | [=DA]2 [EG]2 F2 | %5
 [=DA]2 [EG]2 [DF]2 | E2 [Ec]2 [EB]2 | A6 | [FA]2 [Fd]2 [Fe]2 | [Gd]2 [Gc]2 [GA]2 | %10
 [EG]2 [Gc]2 [GB]2 | [_FB]4 [=FA]2 | [DB]2 [Ac]2 [Ad]2 | [=Gf]2 [Ge]2 [GB]2 | [GB]2 [GA]2 [Ge]2 | %15
 [Fd]6 |] %16
V:2
 x6 | x6 | x6 | x6 | x4 F2 | x6 | E2 x4 | (E2 F2 G2) | x6 | x6 | x6 | x6 | x6 | x6 | x6 | x6 |] %16
V:3
 [D,A,]2 [D,A,]2 [A,,A,]2 | [E,A,]2 [E,A,]2 [A,,B,]2 | [A,C]2 [A,B,]2 [A,,C]2 | [D,D]4 [D,A,]2 | %4
 [B,,B,]2 [C,B,]2 [=D,B,]2 | [E,_C]2 [E,B,]2 [F,A,]2 | [G,B,]2 [G,B,]2 [=G,D]2 | (C2 D2 E2) | %8
 [D,D]2 [D,A,]2 [A,,A,]2 | [E,A,]2 [E,A,]2 [A,,B,]2 | [A,C]2 [A,B,]2 [A,,C]2 | [D,=G,]4 [D,A,]2 | %12
 G,2 [G,E]2 [F,D]2 | [E,D]2 [E,C]2 [E,D]2 | [A,E]2 [A,C]2 [A,,A,]2 | [D,A,]6 |] %16
V:4
 x6 | x6 | x6 | x6 | x6 | x6 | x6 | A,6 | x6 | x6 | x6 | x6 | G,2 x4 | x6 | x6 | x6 |] %16

